icons/4_Outdated/Gate.io v1.svg

<svg width="1024" height="1024" fill="none" xmlns="http://www.w3.org/2000/svg"><g clip-path="url(#a)"><path d="M512 1024c282.77 0 512-229.23 512-512S794.77 0 512 0 0 229.23 0 512s229.23 512 512 512Z" fill="#FF837D"/><path d="m456.56 507.931-4.48-4.48a5.338 5.338 0 0 0-5.827-1.188 5.341 5.341 0 0 0-3.313 4.938v63.71a5.343 5.343 0 0 0 1.593 3.771 5.33 5.33 0 0 0 3.797 1.529H512a5.335 5.335 0 0 0 4.939-3.313c.402-.98.503-2.057.291-3.094a5.33 5.33 0 0 0-1.48-2.733 5.234 5.234 0 0 1-1.169-5.784 5.238 5.238 0 0 1 1.169-1.716l67.82-68a5.25 5.25 0 0 0 1.58-3.75 5.243 5.243 0 0 0-1.58-3.75l-6.17-6.07a5.34 5.34 0 0 1 3.75-9.14h63.71a5.38 5.38 0 0 1 5.39 5.3v63.71a5.342 5.342 0 0 1-6.407 5.231 5.34 5.34 0 0 1-2.733-1.481l-4.3-4.3a5.25 5.25 0 0 0-3.75-1.58 5.247 5.247 0 0 0-3.75 1.58L515 651.531a5.344 5.344 0 0 1-5.85 1.169 5.333 5.333 0 0 1-1.74-1.169l-139.87-139.85a5.349 5.349 0 0 1 0-7.59l193.77-193.41a5.346 5.346 0 0 0 1.579-3.795 5.35 5.35 0 0 0-1.579-3.795l-45.52-45.52a5.357 5.357 0 0 0-5.85-1.168 5.346 5.346 0 0 0-1.74 1.168l-250.62 250.64a5.36 5.36 0 0 0-1.579 3.795 5.345 5.345 0 0 0 1.579 3.795l250.63 250.62a5.333 5.333 0 0 0 3.795 1.579 5.349 5.349 0 0 0 3.795-1.579l250.62-250.63a5.346 5.346 0 0 0 1.579-3.795 5.35 5.35 0 0 0-1.579-3.795L618.9 360.861a5.357 5.357 0 0 0-5.85-1.168 5.346 5.346 0 0 0-1.74 1.168l-147.16 147.14a5.44 5.44 0 0 1-7.59-.09v.02Z" fill="#fff"/></g><defs><clipPath id="a"><path fill="#fff" d="M0 0h1024v1024H0z"/></clipPath></defs></svg>

<svg width="1024" height="1024" viewBox="0 0 1024 1024" fill="none" xmlns="http://www.w3.org/2000/svg">
<g clip-path="url(#clip0_3_554)">
<path d="M512 1024C794.77 1024 1024 794.77 1024 512C1024 229.23 794.77 0 512 0C229.23 0 0 229.23 0 512C0 794.77 229.23 1024 512 1024Z" fill="#FF837D"/>
<path d="M456.56 507.931L452.08 503.451C451.336 502.698 450.385 502.182 449.347 501.971C448.31 501.759 447.233 501.861 446.253 502.263C445.273 502.665 444.435 503.349 443.845 504.228C443.255 505.107 442.94 506.142 442.94 507.201V570.911C442.944 571.614 443.087 572.308 443.36 572.956C443.633 573.603 444.032 574.189 444.533 574.682C445.034 575.175 445.627 575.563 446.279 575.826C446.93 576.088 447.628 576.219 448.33 576.211H512C513.059 576.211 514.094 575.896 514.973 575.306C515.853 574.716 516.537 573.878 516.939 572.898C517.341 571.918 517.442 570.841 517.23 569.804C517.019 568.766 516.504 567.815 515.75 567.071C515.25 566.583 514.852 566 514.581 565.356C514.31 564.712 514.17 564.02 514.17 563.321C514.17 562.622 514.31 561.931 514.581 561.287C514.852 560.643 515.25 560.059 515.75 559.571L583.57 491.571C584.07 491.083 584.467 490.5 584.739 489.856C585.01 489.212 585.15 488.52 585.15 487.821C585.15 487.122 585.01 486.431 584.739 485.787C584.467 485.143 584.07 484.559 583.57 484.071L577.4 478.001C576.646 477.257 576.131 476.306 575.919 475.268C575.708 474.231 575.809 473.154 576.211 472.174C576.613 471.195 577.297 470.357 578.177 469.767C579.056 469.177 580.091 468.862 581.15 468.861H644.86C646.275 468.858 647.634 469.413 648.643 470.405C649.651 471.397 650.229 472.747 650.25 474.161V537.871C650.25 538.93 649.934 539.965 649.345 540.844C648.755 541.724 647.917 542.408 646.937 542.81C645.957 543.212 644.88 543.313 643.843 543.102C642.805 542.89 641.854 542.375 641.11 541.621L636.81 537.321C636.322 536.821 635.739 536.424 635.095 536.152C634.451 535.881 633.759 535.741 633.06 535.741C632.361 535.741 631.669 535.881 631.025 536.152C630.381 536.424 629.798 536.821 629.31 537.321L515 651.531C514.503 652.032 513.911 652.429 513.26 652.7C512.609 652.971 511.91 653.11 511.205 653.11C510.5 653.11 509.801 652.971 509.15 652.7C508.498 652.429 507.907 652.032 507.41 651.531L367.54 511.681C367.04 511.184 366.642 510.593 366.371 509.941C366.1 509.29 365.961 508.592 365.961 507.886C365.961 507.181 366.1 506.482 366.371 505.831C366.642 505.18 367.04 504.588 367.54 504.091L561.31 310.681C561.81 310.184 562.207 309.593 562.478 308.941C562.749 308.29 562.889 307.592 562.889 306.886C562.889 306.181 562.749 305.482 562.478 304.831C562.207 304.18 561.81 303.588 561.31 303.091L515.79 257.571C515.293 257.071 514.701 256.674 514.05 256.403C513.399 256.132 512.7 255.992 511.995 255.992C511.29 255.992 510.591 256.132 509.94 256.403C509.288 256.674 508.697 257.071 508.2 257.571L257.58 508.211C257.08 508.708 256.682 509.3 256.411 509.951C256.14 510.602 256.001 511.301 256.001 512.006C256.001 512.712 256.14 513.41 256.411 514.061C256.682 514.713 257.08 515.304 257.58 515.801L508.21 766.421C508.707 766.922 509.298 767.319 509.95 767.59C510.601 767.861 511.3 768 512.005 768C512.71 768 513.409 767.861 514.06 767.59C514.711 767.319 515.303 766.922 515.8 766.421L766.42 515.791C766.92 515.294 767.317 514.703 767.588 514.051C767.859 513.4 767.999 512.702 767.999 511.996C767.999 511.291 767.859 510.592 767.588 509.941C767.317 509.29 766.92 508.698 766.42 508.201L618.9 360.861C618.403 360.361 617.811 359.964 617.16 359.693C616.509 359.422 615.81 359.282 615.105 359.282C614.4 359.282 613.701 359.422 613.05 359.693C612.398 359.964 611.807 360.361 611.31 360.861L464.15 508.001C463.123 508.978 461.754 509.516 460.337 509.499C458.919 509.482 457.564 508.912 456.56 507.911V507.931Z" fill="white"/>
</g>
<defs>
<clipPath id="clip0_3_554">
<rect width="1024" height="1024" fill="white"/>
</clipPath>
</defs>
</svg>
